svg/cloud.svg

<svg xmlns="http://www.w3.org/2000/svg" viewBox="0 0 64 38" enable-background="new 0 0 64 38"><style type="text/css">.st0{fill:#343434;}</style><title>cloud</title><desc>Created with Sketch.</desc><path class="st0" d="M50 10c-1 0-2.1.1-3 .3-2.3-6-8.2-10.3-15-10.3-7 0-13 4.5-15.1 10.8-.5 1.7-.8 2.9-.8 3.6-.6-.2-1.8-.4-4.1-.4-6.6 0-12 5.4-12 12s5.4 12 12 12h38c7.7 0 14-6.3 14-14s-6.3-14-14-14zm0 24h-38c-4.4 0-8-3.6-8-8s3.6-8 8-8c.9 0 1.8.2 2.7.5l4.9 1.8.4-5.3c.5-6.2 5.7-11 12-11 5 0 9.5 3.1 11.2 7.7l1.2 3.2 3.4-.7c.7-.2 1.4-.2 2.2-.2 5.5 0 10 4.5 10 10s-4.5 10-10 10z"/></svg>

<?xml version="1.0" encoding="utf-8"?>
<!-- Generator: Adobe Illustrator 21.0.0, SVG Export Plug-In . SVG Version: 6.00 Build 0)  -->
<svg version="1.1" id="Layer_1" xmlns="http://www.w3.org/2000/svg" xmlns:xlink="http://www.w3.org/1999/xlink" x="0px" y="0px"
	 viewBox="0 0 64 38" style="enable-background:new 0 0 64 38;" xml:space="preserve">
<style type="text/css">
	.st0{fill:#343434;}
</style>
<title>cloud</title>
<desc>Created with Sketch.</desc>
<path class="st0" d="M50,10c-1,0-2.1,0.1-3,0.3C44.7,4.3,38.8,0,32,0c-7,0-13,4.5-15.1,10.8c-0.5,1.7-0.8,2.9-0.8,3.6
	C15.5,14.2,14.3,14,12,14C5.4,14,0,19.4,0,26s5.4,12,12,12h38c7.7,0,14-6.3,14-14S57.7,10,50,10z M50,34H12c-4.4,0-8-3.6-8-8
	s3.6-8,8-8c0.9,0,1.8,0.2,2.7,0.5l4.9,1.8L20,15c0.5-6.2,5.7-11,12-11c5,0,9.5,3.1,11.2,7.7l1.2,3.2l3.4-0.7
	c0.7-0.2,1.4-0.2,2.2-0.2c5.5,0,10,4.5,10,10S55.5,34,50,34z"/>
</svg>
